X: 3
T: Sveds Jans polkett
R: polka
Z: 1998 by John Chambers <jc@trillian.mit.edu>
M: 2/4
L: 1/8
K: A
e/d/ \
|: "A"cE AE | A/B/c/d/ e>f | "E7"eB d/c/B | "A"Aa g/f/e/d/ \
|  "A"cE AE | A/B/c/d/ e>f | "E7"eB d/c/B | "A"AA "fine"A2 :|
K: E
|: "E"Be Be | Ba g2 | "B7"gf a/g/f | "E"fe g/f/e \
|  "E"Be Be | Ba g2 | "B7"gf a/g/f | "E"ee e2 :|
K: A
e/d/ \
|: "A"cE AE | A/B/c/d/ e>f | "E7"eB d/c/B | "A"Aa g/f/e/d/ \
|  "A"cE AE | A/B/c/d/ e>f | "E7"eB d/c/B | "A"AA A2 :|
K: D
|: "D"FG ^GA | f2 d2 | "A7"fe g/f/e | "D"ed f/e/d \
|  "D"FG ^GA | f2 d2 | "A7"fe g/f/e | "D"dd d2 :|
